!!!COM: Beethoven, Ludwig van
!!!CDT: 1770///-1827///
!!!OTL: Piano Sonata no. 4 in E-flat major
!!!OTP: grand sonata
!!!ODE: a Madame la Comtesse Babette de Keglevics
!!!OMD: Largo, con gran expressione
!!!OPS: 7
!!!OMV: 2
**kern	**kern	**dynam
*staff2	*staff1	*staff1/2
*clefF4	*clefG2	*clefG2
*k[]	*k[]	*k[]
*C:	*C:	*C:
*M3/4	*M3/4	*M3/4
*MM44	*MM44	*MM44
=1-	=1-	=1-
4CC\ 4GG\ (4C\	4G/ 4c/ (4e/	p
8BBB\ 8GG\ 8BB\)	8G/ 8d/ 8f/)	.
8r	8r	.
4r	4r	.
=2	=2	=2
*^	*	*
4G/	4BBB\ 4GG\ (4BB\	(8.g/L	.
.	.	16d/Jk	.
8G/	8CC\ 8GG\ 8C\)	8e/)	.
8r	8r	8r	.
4r	4r	4r	.
*v	*v	*	*
=3	=3	=3
(4CC\ 4C\	4E/ 4G/ 4c/ (4e/	.
8FFF\) 8FF#\	8C/ 8A/ 8d/)	.
8r	8r	.
4r	4r	.
=4	=4	=4
*^	*	*
4D/	4FFF#\ (4FF#\	(8.d/L	.
.	.	16A/Jk	.
2D/ 2G/	2FFFn\ 2FFn\)	4.c/)	>
.	.	8B/	.
*v	*v	*	*
=5	=5	=5
(4EE\	4E/ 4G/ (4c/	.
4DD\ 4D\	4F/ 4G/ 4B/ 4d/	.
4CC\) 4C\	4G/ 4c/ 4e/)	.
=6	=6	=6
*^	*	*
2A/	2.FFF\ 2.FF\	4G/ (4e/	.
.	.	4F/ 4d/	.
4r	.	4E/ 4A/ 4c/)	.
=7	=7	=7	=7
4A/	2GGG\ 2GG\	[2D/ [2B/	.
8G/L	.	.	.
8A-/	.	.	.
8G/	4GGG\ 4GG\	8D/] 8B/L]	.
8D/ 8F/J	.	8B/J	.
=8	=8	=8	=8
(4GG/	4.CC\	4F/ 4B/ (4d/	.
8C/)	.	8E/ 8c/)	.
8r	8r	8r	.
4r	4r	8.r	.
.	.	16c/	.
*v	*v	*	*
=9	=9	=9
4r	(8.g/L	.
.	16f#/Jk)	<
4AA\ 4D\ 4A\	4c/ 4f#/ 4dd/	.
4AA\ 4D\ 4A\	4c/ 4f#/ 4dd/	>
=10	=10	=10
2GG\ 2D\ 2B\	4d\ 4g\ 4b\ 4dd\	.
.	(8.gg\L	>
.	16b\Jk	.
4r	16cc\LL	.
.	16cc#\	.
.	16ee\	.
.	16dd\JJ)	.
=11	=11	=11
4r	(8.g/L	p
.	16f#/Jk)	<
4AA\ 4A\	4c/ 4f#/ 4dd/	.
4AA\ 4D\ 4A\	4c/ 4f#/ 4dd/	>
=12	=12	=12
2GG\ 2D\ 2B\	4d\ 4g\ 4b\ 4dd\	.
.	(8.bb\L	.
.	16gg\Jk	.
4r	32ff#\LLL	p
.	32gg\	.
.	32aa\	.
.	32gg\JJJ	.
.	32cc#\LLL	.
.	32dd\	.
.	32ee\	.
.	32dd\JJJ)	.
=13	=13	=13
*	*^	*
4r	(8.g/L	4r	.
.	16f#/Jk)	.	<
4AA\ 4D\ 4A\	8dd/	4c\ 4f#\	.
.	4dd/	.	.
4AA-\ 4D\ 4A-\	.	4c\ 4fn\	.
.	[8dd/	.	.
*	*v	*v	*
=14	=14	=14
8GG\ 8BB\ 8D\ 8F\ 8G\	8dd\]	f
8r	[8ff\)	.
8G\ 8B\ 8d\ 8f\	16ff'\LL]	.
.	32r	.
.	(32ee\k	.
8r	16dd'\)	.
.	32r	.
.	(32cc\JJk	.
4r	16b'\LL)	.
.	32r	.
.	(32a\k	.
.	16g'\)	.
.	32r	.
.	32f\JJk	.
=15	=15	=15
4CC/ (4C/	4G/ (4e/	pp
8BBB/ 8D/)	8G/ 8f/)	.
8r	8r	.
4r	4r	.
=16	=16	=16
*	*^	*
4BBB/ 4GG/ (4BB/	(8.g/L	4G\	.
.	16d/Jk	.	.
8CC/ 8GG/ 8C/)	8e/)	8G\	.
8r	8r	4.r	.
4r	4r	.	.
=17	=17	=17	=17
*^	*	*	*
4r	4CC#\ 4AA\ 4C#\	(8.a/L	4A\	.
.	.	16e/Jk	.	.
8r	8DD\ 8D\	8.f/L)	8A\	.
8F/ [8B-/	8r	.	4.r	.
.	.	(32b-/LL	.	.
.	.	32a/JJJ	.	.
8B-/L]	4E\ 4G\	8.g/L)	.	f
[8cn/J	.	.	.	.
.	.	(32cc/LL	.	.
.	.	32b-/JJJ	.	.
*	*	*v	*v	*
=18	=18	=18	=18
8c/L]	(8F\ [8A\L	8.a/L)	.
[8d/J	8F#\ 8A\J]	.	.
.	.	(32dd/LL	.
.	.	32cc/JJJ	.
8B/ 8d/]	8G\L	8bn/)	.
4d/	8G#\) 8B\J	4f/ (4ff/	.
.	4A\	.	.
8c/	.	8e/ 8ee/)	.
=19	=19	=19	=19
*	*	*^	*
4F#\	2r	8r	4c\ 4d\	pp
.	.	16r	.	.
.	.	16a/	.	.
4G\	.	8..g/L	4c\ 4e\	.
.	.	32g/kk	.	.
4GGG\ 4GG\	4Fn/	8..g/	4B\ 4d\	.
.	.	32g/Jkk	.	.
*	*	*v	*v	*
=20	=20	=20	=20
4E/ 4G/	4BBB-\ 4BB-\	4c#/	.
8r	8r	8r	.
16E''/ 16G''/	16AAA\ 16AA\	16c#`/	ff
16r	16r	16r	.
16F/ 16A/	16DD\ 16AA\ 16D\	16d/	.
16r	16r	16r	.
16E''/ 16A''/	16CC#\ 16AA\ 16C#\	16e`/	.
16r	16r	16r	.
=21	=21	=21	=21
4.r	4r	4r	.
.	8r	8r	.
16E/ 16A/	16CC#''\ 16AA''\ 16C#''\	16e/	ff
16r	16r	16r	.
16F/ 16A/	16DD''\ 16AA''\ 16D''\	16d/ 16f/	.
16r	16r	16r	.
16G/	16CCn\ 16Cn\	16c/ 16e/ 16g/	.
16r	16r	16r	.
*v	*v	*	*
=22	=22	=22
4r	4r	.
8r	8r	.
(8CC\ 8C\L	8G/ 8c/ 8e/ 8g/L	pp
8FF\ 8C\ 8F\	8A/ 8c/ 8f/ 8a/	.
8GG\) 8C\ 8G\J	8c/ 8e/ 8g/J	.
=23	=23	=23
*^	*^	*
4AA\ 4C\ 4A\	2r	4r	4c/ 4d/ 4f#/	.
4GG\ 4C\ 4G\	.	8..g/L	4c\ 4e\	.
.	.	32g/kk	.	pp
4GGG\ 4GG\	4Fn/	8..g/	4B\ 4d\	.
.	.	32g/Jkk	.	.
*v	*v	*	*	*
*	*v	*v	*
=24	=24	=24
8.CC\ 8.C\L	8.E/ 8.G/ 8.c/L	.
(16C\Jk	(16c/Jk	.
16BB/LL	16B/LL	.
16C/	16c/	.
16BB/	16B/	.
16C/JJ	16c/JJ	.
16E-/LL	16e-/LL	>
16D-/	16d-/	.
16C/	16c/	.
16BB-/JJ)	16B-/JJ)	.
=25	=25	=25
16AAA-'/LL	4.E-/ 4.A-/ 4.c/ 4.e-/	.
16AA-'/	.	.
16C'/	.	.
16AA-'/JJ	.	.
16AAA-'/LL	.	.
16AA-'/	.	.
16C'/	8E-/ 8A-/ 8c/ 8e-/L	.
16AA-'/JJ	.	.
16AAA-'/LL	8E-/ 8A-/ 8c/ 8e-/	.
16AA-'/	.	.
16C'/	8A-/ 8c/ 8e-/ 8a-/J	.
16AA-'/JJ	.	.
=26	=26	=26
*	*^	*
16BBB-'/LL	4A-/ (4a-/	2d-\ 2e-\	.
16BB-'/	.	.	.
16D-'/	.	.	.
16BB-'/JJ	.	.	.
16BBB-'/LL	4G/ 4g/)	.	.
16BB-'/	.	.	.
16D-'/	.	.	.
16BB-'/JJ	.	.	.
16CC'/LL	4r	8..An/ 8..e-/ 8..g-/ 8..an/L	.
16C'/	.	.	.
16E-'/	.	.	.
16C'/JJ	.	.	.
.	.	32A/ 32e-/ 32g-/ 32a/Jkk	.
*	*v	*v	*
=27	=27	=27
16DD-/LL	4An/ [4f/ 4an/	.
16D-/	.	.
16F/	.	.
16D-/JJ	.	.
16DD-/LL	8..B-/ 8..f/] 8..b-/L	.
16D-/	.	.
16F/	.	.
16D-/JJ	.	.
.	32B-/ 32b-/Jkk	.
16EE-/LL	8..d-/ 8..e-/ 8..b-/ 8..dd-/L	.
16E-/	.	.
16G/	.	.
16E-/JJ	.	.
.	32d-/ 32e-/ 32g/Jkk	.
=28	=28	=28
16AA-\LL	4d-/ [4e-/ (4b-/	.
16E-\	.	.
16G\	.	.
16E-\JJ	.	.
16AA-\LL	8c/ 8e-/] 8a-/)	.
16A-\	.	.
16C\	8r	.
16c\JJ	.	.
16AA-\LL	4r	.
16A-\	.	.
16FF\	.	.
16F\JJ	.	.
=29	=29	=29
16EEn/LL	4.c/ 4.en/ 4.g/ 4.cc/	<
16En/	.	.
16G/	.	.
16E/JJ	.	.
16EE/LL	.	.
16E/	.	.
16GG/	8c'/ 8e'/ 8g'/ (8cc'/L	.
16G/JJ	.	.
16EE/LL	8c'/ 8e'/ 8g'/ 8cc'/	.
16E/	.	.
16CC/	8c/ 8e/ 8g/ 8cc/J)	.
16C/JJ	.	.
=30	=30	=30
16BBB-/LL	4en/ 4g/ 4dd-/ (4een/	.
16BB-/	.	.
16D-/	.	.
16BB-/JJ	.	.
16AAA-/LL	8f/ 8a-/ 8cc/ 8ff/)	.
16AA-/	.	.
16CC/	8r	.
16C/JJ	.	.
16AAA-/LL	8r	.
16AA-/	.	.
16FFF/	16.r	.
16FF/JJ	.	.
.	32F/ 32f/	.
=31	=31	=31
16DD-/LL	8..G/ 8..f/ 8..g/L	.
16D-/	.	.
16BBBn/	.	.
16BBn/JJ	.	.
.	32G/ 32f/ 32g/Jkk	.
16CC/LL	8..A-/ 8..c/ 8..f/ 8..a-/L	.
16C/	.	.
16F/	.	.
16C/JJ	.	.
.	32A-/ 32c/ 32f/ 32a-/Jkk	.
16CC/LL	8..B-/ 8..c/ 8..e/ 8..b-/L	.
16C/	.	.
16E/	.	.
16C/JJ	.	.
.	32B-/ 32c/ 32e/ 32g/Jkk	.
=32	=32	=32
(16FF/LL	4A-/ 4c/ 4f/	pp
16F/	.	.
16GG-/	.	.
16G-/JJ	.	.
16GGn/LL	4r	.
16Gn/	.	.
16AA-/	.	.
16A-/JJ	.	.
16GG-/LL	4r	.
16G-/	.	.
16EE-/	.	.
16E-/JJ)	.	.
=33	=33	=33
16DD-'/LL	4.A-/ 4.d-/ 4.f/ 4.a-/	.
16D-'/	.	.
16F'/	.	.
16D-'/JJ	.	.
16DD-'/LL	.	.
16D-'/	.	.
16F'/	8A-/ 8d-/ 8f/ 8a-/L	<
16D-'/JJ	.	.
16DD-'/LL	8A-/ 8d-/ 8f/ 8a-/	.
16D-'/	.	.
16F'/	8d-/ 8f/ 8a-/ 8dd-/J	.
16D-'/JJ	.	.
=34	=34	=34
*	*^	*
16EE-/LL	4d-/ (4dd-/	2g-\ 2a-\	>
16E-/	.	.	.
16G-/	.	.	.
16E-/JJ	.	.	.
16EE-/LL	4c/ 4cc/)	.	.
16E-/	.	.	.
16G-/	.	.	.
16E-/JJ	.	.	.
16FF/LL	4r	8..dn/ 8..a-/ 8..cc-/ 8..ddn/L	f
16F/	.	.	.
16A-/	.	.	.
16F/JJ	.	.	.
.	.	32d/ 32a-/ 32cc-/ 32dd/Jkk	.
=35	=35	=35	=35
16GG-\LL	4d/ (4dd/	2b-\	.
16G-\	.	.	.
16B-\	.	.	.
16G-\JJ	.	.	.
16GG-\LL	4e-/ 4ee-/)	.	.
16G-\	.	.	.
16B-\	.	.	.
16G-\JJ	.	.	.
16GGn\LL	8..en/ 8..b-/ 8..dd-/ 8..een/L	4r	<
16Gn\	.	.	.
16B-\	.	.	.
16G\JJ	.	.	.
.	32e/ 32b-/ 32dd-/ 32ee/Jkk	.	.
=36	=36	=36	=36
16AA-\LL	8e/ (8ee/	4.cc\	.
16A-\	.	.	.
16c\	4f/ 4ff/)	.	.
16A-\JJ	.	.	.
16AA-\LL	.	.	.
16A-\	.	.	.
16c\	8e-'/ 8f#'/ (8ee-'/L	4.r	f
16A-\JJ	.	.	.
16AA-\LL	8d'/ 8f#'/ 8dd'/	.	.
16A-\	.	.	.
16AA-\	8c/ 8f#/ 8cc/J)	.	.
16A-\JJ	.	.	.
*	*v	*v	*
=37	=37	=37
2GGG/ 2GG/	2G/ 2g/	f
8.GGG/ 8.GG/L	8.G/ 8.g/L	.
16GGG/ 16GG/Jk	16G/ 16g/Jk	.
=38	=38	=38
4FFF#/ 4FF#/	4F#/ 4f#/	.
4r	8eee-\	pp
.	8r	.
4r	8eee-\	.
.	8r	.
=39	=39	=39
2GGG/ 2GG/	2G/ 2g/	p
(8.AAA-/ 8.AA-/L	(8.A-/ 8.a-/L	.
16GGG/) 16GG/Jk	16G/) 16g/Jk	.
=40	=40	=40
4FFF#/ 4FF#/	4F#/ 4f#/	.
4r	8eee-\	pp
.	8r	.
4r	8eee-\	.
.	8r	.
=41	=41	=41
4FFFn/ 4FFn/	4r	pp
4r	4eee-\	pp
4r	4eee-\	.
*clefG2	*	*
=42	=42	=42
4B-/ 4f/ (4b-/	4dd\ (4ddd\	.
8c/ 8f/ 8a/)	8ee-\ 8eee-\)	.
8r	8r	.
4r	4r	.
=43	=43	=43
*	*^	*
4A/ 4f/ (4a/	(8.fff/L	4ee-\	.
.	16ccc/Jk	.	.
8B-/ 8f/ 8b-/)	8ddd/)	8dd\	.
8r	4.r	8r	.
4r	.	4r	.
*clefF4	*	*	*
=44	=44	=44	=44
4Bn\ (4d\	(8.gg/L	[4g\	>
.	16dd/Jk	.	.
8c\ 8e-\)	8ee-/)	8g\]	.
8r	4.r	8r	.
4r	.	4r	.
*clefG2	*	*	*
*	*v	*v	*
=45	=45	=45
8..gg\L	4r	.
32dd\Jkk	.	.
8..ee-\L	8..gg\L	.
32b\Jkk	32dd\Jkk	.
8..cc/L	8..ee-\ 8..eee-\L	.
32g/Jkk	32bn\ 32bbn\Jkk	.
=46	=46	=46
8..a-/L	8..cc\ 8..ccc\L	.
32en/Jkk	32g\ 32gg\Jkk	.
8..f/L	8..a-\ 8..aa-\L	.
32e-/ 32f/Jkk	32a-\ 32aa-\Jkk	.
8..d/ 8..f/L	8..a-\ 8..aa-\L	.
32c/ 32e-/Jkk	32a-\ 32aa-\Jkk	.
=47	=47	=47
*	*^	*
8Bn/ 8d/	(8.aa-/L	8a-\	f
8r	.	8r	.
.	16ff/Jk	.	.
4r	16dd'/LL)	2r	.
.	16r	.	.
.	16bn'/	.	p
.	16r	.	.
4r	16a-'/	.	.
.	16r	.	.
.	16f'/JJ	.	.
.	16r	.	.
*	*v	*v	*
=48	=48	=48
4r	16d/LL	.
.	16r	.
.	16Bn/	.
.	16r	.
8r	16A-/JJ	.
.	16r	.
*clefF4	*	*
16F/LL	8r	.
16r	.	.
16D/	4r	.
16r	.	.
16BBn/JJ	.	.
16r	.	.
=49	=49	=49
*^	*	*
8r	16AA-\	8r	.
.	16r	.	.
(8F/L	8FF\L	8r	.
8D/	8DD\	2r	.
8BBn/	8BBBn\	.	.
8AA-/	8AAA-\	.	.
8GG/J)	8GGG\J	.	.
*v	*v	*	*
=50	=50	=50
4FFF#/ 4FF#/	8r	.
.	8c/ 8d/ 8an/	pp
4GGG/ 4GG/	8r	.
.	8c/ 8d/ 8g/	.
4GGG/ 4GG/	8r	.
.	8B/ 8d/ 8fn/	.
=51	=51	=51
4CC/ 4GG/ (4C/	4G/ 4c/ (4e/	.
8BBB/ 8GG/ 8BB/)	8G/ 8d/ 8f/)	.
8r	8r	.
4r	4r	.
=52	=52	=52
*	*^	*
4BBB/ 4GG/ (4BB/	(8.g/L	4G\	>
.	16d/Jk	.	.
8CC/ 8GG/ 8C/)	8e/)	8G\	.
8r	8r	4.r	.
4r	4r	.	.
*	*v	*v	*
=53	=53	=53
*^	*	*
4E/ 4G/	4CC\ (4C\	4c/ (4e/	.
8D/ 8A/	8FFF#\ 8FF#\)	8d/)	.
4.r	8r	8r	.
.	4r	4r	.
=54	=54	=54	=54
4D/	4FFF#\ 4FF#\	(8.d/L	.
.	.	16A/Jk)	.
2D/ 2G/	2FFFn\ 2FFn\	(4.c/	.
.	.	8B/)	.
=55	=55	=55	=55
4E/ 4G/	(4EE\	(4c/	.
4F/ 4G/ 4B/	4DD\ 4D\	4d/	.
4G/	4CC\) 4C\	4c/ 4e/)	.
=56	=56	=56	=56
2A/	2.FFF\ 2.FF\	4G/ (4e/	.
.	.	4F/ 4d/	.
4r	.	4E/ 4A/ 4c/)	.
=57	=57	=57	=57
8An/	2.GGG\ 2.GG\	[2D/ [2B/	.
4A-/	.	.	.
8G/L	.	.	.
8F#/	.	8D/] 8B/L]	.
8D/ 8Fn/J	.	8B/J	.
=58	=58	=58	=58
(4GG/	4.CC\	4F/ 4B/ (4d/	.
8C/)	.	8E/ 8c/)	.
8r	4.r	8r	.
4r	.	8.r	.
.	.	16c/	.
*v	*v	*	*
=59	=59	=59
4r	(8.g/L	.
.	16f#/Jk)	.
4AA\ 4D\ 4A\	4c/ 4f#/ 4dd/	.
4AA\ 4D\ 4A\	4c/ 4f#/ 4dd/	.
=60	=60	=60
2GG\ 2D\ 2B\	4d\ 4g\ 4b\ 4dd\	.
.	(8.gg\L	.
.	16cc#\Jk	.
4r	24ee\LL	.
.	24dd\	.
.	24a#\JJ	.
.	24ccn\LL	.
.	24b\	.
.	24g\JJ)	.
=61	=61	=61
4r	(8.g/L)	.
.	16f#/Jk)	<
4AA\ 4D\ 4A\	4c/ 4f#/ 4dd/	.
4AA\ 4D\ 4A\	4c/ 4f#/ 4dd/	>
=62	=62	=62
2GG\ 2D\ 2B\	4d\ 4g\ 4b\ 4dd\	.
.	(8.bb\L	.
.	16ff#\Jk	.
4r	24aa\LL	.
.	24gg\	.
.	24cc#\JJ	.
.	48ee\LLL	.
.	48dd\	.
.	48a#\	.
.	48ccn\	.
.	48b\	.
.	48g\JJJ)	.
=63	=63	=63
*	*^	*
4r	(8.g/L)	4r	.
.	16f#/Jk)	.	.
4AA\ 4D\ 4A\	8dd/	4c\ 4f#\	<
.	4dd/	.	.
4AA-\ 4D\ 4A-\	.	4c\ 4fn\	.
.	[8dd/	.	.
*	*v	*v	*
=64	=64	=64
8GG\ 8BB\ 8D\ 8F\ 8G\	8dd\]	f
8r	[8ff\)	.
8G\ 8B\ 8d\ 8f\	16ff\]	.
.	48r	.
.	(48ff\LLL	.
.	48ee\JJJ	.
8r	16dd\)	.
.	48r	.
.	(48dd\LLL	.
.	48cc\JJJ	.
4r	16b\)	.
.	48r	.
.	(48b/LLL	.
.	48a/JJJ	.
.	16g/)	.
.	48r	.
.	(48g/LLL	.
.	48f/JJJ)	.
=65	=65	=65
4CC/ (4C/	4G/ (4e/	.
8BBB/ 8D/)	8G/ 8f/)	.
8r	16r	.
.	(16gg\	.
4r	16ff#\LL	.
.	16gg\	.
.	16aa\	.
.	16gg\JJ)	.
=66	=66	=66
*	*^	*
4BBB/ 4GG/ (4BB/	(8.g/L	4G\	.
.	16d/Jk	.	.
8CC/ 8GG/ 8C/)	8e/)	8G\	.
8r	4.r	16r	.
.	.	16g\ (16gg\	<
4r	.	16f#\ 16ff#\LL	.
.	.	16g\ 16gg\	>
.	.	16a\ 16aa\	.
.	.	16g\ 16gg\JJ)	.
=67	=67	=67	=67
*^	*	*	*
4r	4CC#\ 4AA\ 4C#\	8.a/L	4A\	.
.	.	16e/Jk	.	.
16r	8DD\ 8D\	8.f/L	2r	.
16F/LK	.	.	.	.
[8B-/J	8r	.	.	.
.	.	(32b-/LL	.	.
.	.	32a/JJJ	.	.
16.B-/LL]	4E\	8.g/L)	.	.
32G/Jk	.	.	.	.
[8c/J	.	.	.	.
.	.	(32cc/LL	.	.
.	.	32b-/JJJ	.	.
*	*	*v	*v	*
=68	=68	=68	=68
16.c/LL]	8F\L	8.a/L)	.
32A/Jk	.	.	.
[8d/J	8F#\J	.	.
.	.	(32dd/LL	.
.	.	32cc/JJJ	.
16.d/LL]	8G\	8bn/)	.
32c/k	.	.	.
16.Bn/	4G#\	4fn/ (4ffn/	.
32c/JJk	.	.	.
16.d/LL	.	.	.
32B/k	.	.	.
16.c/	8A\	8e/ 8ee/)	.
32c/JJk	.	.	.
*v	*v	*	*
=69	=69	=69
*	*^	*
4F#\	8r	4c\ 4d\	pp
.	16.r	.	.
.	32a/	.	.
4G\	8..g/L	4c\ 4e\	.
.	32g/kk	.	.
4GGG/ 4GG/	8..g/	4Fn\ 4B\ 4d\	.
.	32g/Jkk	.	.
*	*v	*v	*
=70	=70	=70
4BBB-/ 4BB-/	4E/ 4G/ 4c#/	.
8r	8r	.
16AAA''/ 16AA''/	16E`/ 16G`/ 16c#`/	ff
16r	16r	.
16DD''/ 16AA''/ 16D''/	16F`/ 16A`/ 16d`/	.
16r	16r	.
16CC#''/ 16AA''/ 16C#''/	16E`/ 16A`/ 16e`/	.
16r	16r	.
=71	=71	=71
4r	4r	.
8r	8r	.
16CC#''/ 16AA''/ 16C#''/	16E`/ 16A`/ 16e`/	ff
16r	16r	.
16DD''/ 16AA''/ 16D''/	16F`/ 16A`/ 16d`/ 16f`/	.
16r	16r	.
16CCn''/ 16Cn''/	16G`/ 16cn`/ 16e`/ 16g`/	.
16r	16r	.
=72	=72	=72
4r	4r	.
8r	8r	.
8CC/ 8C/L	8G/ 8c/ 8e/ (8g/L	pp
8FF/ 8C/ 8F/	8A/ 8c/ 8f/ 8a/	.
8GG/ 8C/ 8G/J	8c/ 8e/ 8g/J	.
=73	=73	=73
*^	*	*
4r	8AA\ 8C\ 8A\L	8c/ 8f#/L	.
.	8AA-\ 8C\ 8A-\J	8c/ 8f#/ 8dd/J	.
8C/ 8E/ 8G/L	4GG\	4ee\	f
8C/ 8E/ 8G/	.	.	.
8D/ 8F/ 8G/	4GG\	16gg\LL	.
.	.	16ff\	.
8D/ 8F/ 8G/J	.	16dd\	.
.	.	16b\JJ	.
=74	=74	=74	=74
4.E/ 4.G/	4C\	16cc\)	.
.	.	16g\LL	p
.	.	16gg\	.
.	.	16gg'\JJ	.
.	4C\	16r	.
.	.	16g\LL	.
8E/ 8G/L	.	16gg\	.
.	.	16gg'\JJ	.
8E/ (8G/	4C\	16r	.
.	.	(16g\LL	.
8c/J)	.	16gg\)	.
.	.	16gg'\JJ	.
=75	=75	=75	=75
(4c/	2D\ 2F\ 2G\	16r	.
.	.	(16g\LL	>
.	.	16gg\)	.
.	.	16gg'\JJ	.
4B/)	.	16r	.
.	.	(16g\LL	.
.	.	16gg\)	.
.	.	16gg'\JJ	.
(8.c#/L	4E\ 4G\	16r	.
.	.	16g\ (16a\LL	.
.	.	16gg\ 16aa\)	.
16e/Jk)	.	16gg'\ 16aa'\JJ	.
=76	=76	=76	=76
4c#/ (4e/	2F\ 2A\	16r	.
.	.	(16a\LL	.
.	.	16aa\)	.
.	.	16aa'\JJ	.
4d/)	.	16r	.
.	.	(16a\LL	.
.	.	16aa\)	.
.	.	16b-'\ 16bb-'\JJ	.
(8.e/L	4G\ 4B-\ 4cn\	16r	.
.	.	(16cc\LL	.
.	.	16bb-\ 16ccc\)	.
16g/Jk	.	16bb-'\ 16ccc'\JJ	.
*v	*v	*	*
=77	=77	=77
4A\ 4c\) 4g\	16r	.
.	16cc\LL	f
.	16ccc\	.
.	16ccc'\JJ	ff
8..A-\ 8..c\ 8..f\L	16r	.
.	16cc\ 16dd\LL	.
.	16ccc\ 16ddd\	.
.	16ccc'\ 16ddd'\JJ	ff
32A-\ 32c\ 32f\Jkk	.	.
8..A-\ 8..c\ 8..d\ 8..f#\L	16r	.
.	16cc\ 16dd\LL	.
.	16ccc\ 16ddd\	.
.	16ccc'\ 16ddd'\JJ	.
32A-\ 32c\ 32d\ 32f#\Jkk	.	.
=78	=78	=78
8G\ 8B\ 8d\ 8g\	8bb\ 8ddd\	.
8r	8g/	p
4r	(8g'/L	.
.	8g'/	.
4r	8g'/	.
.	8g'/J)	.
=79	=79	=79
*	*^	*
(8.f\L	(8.b/L	8g\L	.
.	.	8g'\	.
16d\Jk	16dd/Jk	.	.
8e\)	8cc/)	8g'\	.
8r	8r	8g'\	.
4r	4r	8g'\	.
.	.	8g\J	.
=80	=80	=80	=80
(8.d\L	(8.ff/L	8g\L	.
.	.	8g'\	.
16B\Jk	16dd/Jk	.	.
8c\)	8ee/)	8g\J	.
(8G'/L	8r	4.r	.
8G'/	4r	.	.
8G'/J)	.	.	.
*	*v	*v	*
=81	=81	=81
*^	*	*
(8G/L	8.F\L	8.b\ (8.bb\L	.
8G'/	.	.	.
.	16D\Jk	16dd\ 16ddd\Jk	.
8G'/	8E\	8cc\ 8ccc\)	.
8G'/	8r	8r	.
8G'/	4r	4r	.
8G/J)	.	.	.
=82	=82	=82	=82
8G'/L	8.D\L	8.ff\ (8.fff\L	.
8G/	.	.	.
.	16BB\Jk	16dd\ 16ddd\Jk	.
8G'/J	8C\	8ee\ 8eee\L)	.
4.r	8r	8cc\ 8ccc\J	.
.	8AA'\ 8A'\	8r	.
.	8r	8a'\ (8aa'\	pp
*v	*v	*	*
=83	=83	=83
8AA-'\ 8A-'\	8r	.
8r	8a-'\ 8aa-'\	.
8GG'\ 8G'\	8r	.
8r	8g'\ 8gg'\)	.
8GGG/ 8GG/	8r	.
8r	8d/ 8f/ (8b/	.
=84	=84	=84
*^	*^	*
4r	8CC/ 8GG/	8cc/	8e\	.
.	4.C\	[8eee/)	8r	<
8E/ (8G/L	.	(8eee/L]	8gg\L	.
8c/	.	16ddd/L	8ee\	.
.	.	16ccc/JJ	.	.
8d/	4G\	16ccc/LL	8ff\	<
.	.	16bb/	.	.
8f/J)	.	16aa/	8dd\J	.
.	.	16bb/JJ)	.	.
=85	=85	=85	=85	=85
4r	8CC/ 8GG/	8ccc/L	8ee\	.
.	4.C\	[8eee/J	8r	<
8E/ (8G/L	.	(8eee/L]	8gg\L	.
8c/	.	16ddd/L	8ee\	.
.	.	16ccc/JJ	.	.
8d/)	4G\	16ccc/LL	8ff\	>
.	.	16bb/	.	.
8f/J	.	16aa/	8dd\J	.
.	.	16bb/JJ)	.	.
*v	*v	*	*	*
*	*v	*v	*
=86	=86	=86
[4c\ (4f\	4dd\ (4ddd\	pp
8c\] 8e\)	8cc\ 8ccc\)	.
8CC\ (8C\L	8r	.
8BBB\ 8BB\	4r	.
8BBB-\ 8BB-\J)	.	.
=87	=87	=87
2AAA\ (2AA\	4G/ 4c#/ (4e/	pp
.	8F/ 8d/ 8f/)	.
.	8r	.
4AAA-\ 4AA-\)	4r	.
=88	=88	=88
*^	*	*
4F/ (4B/	2GGG\ 2GG\	8.g/L	.
.	.	16d/Jk	.
8E/ 8cn/)	.	8e/	.
4.r	.	8r	.
.	[4FFF#\ [4FF#\	4r	.
=89	=89	=89	=89
2A/	2FFF#\] 2FF#\]	4E/ (4e/	.
.	.	4D/ [4d/)	.
4r	4FFFn\ 4FFn\	8D/ 8A/ 8d/]	.
.	.	(32d/LLL	.
.	.	32a/	.
.	.	32f/	.
.	.	32d/JJJ)	pp
=90	=90	=90	=90
8D/ 8F/ 8B/	8GGG\ 8GG\	4r	.
8r	8r	.	.
8E/ 8c/	8CC\ 8C\	8r	.
8r	8r	8r	.
4r;	4r	4r;	.
*v	*v	*	*
==	==	==
*-	*-	*-
!!!ENC: Craig Stuart Sapp
!!!END: 2008/11/03/
